X: 16024
T: Green Brechans O' Branton, The
R: jig
M: 6/8
K: Bminor
g|:f2B BcB|e2A ABA|f2B BcB|d3 g3|
f2B BcB|e2A ABA|Bcd ecA|d3 g3:|
|:fdB fdB|ecA ecA|fdB fdB|d3 g3|
fdB fdB|ecA ecA|Bcd ecA|d3 g3:|

